svg/human_child.svg

<svg xmlns="http://www.w3.org/2000/svg" viewBox="0 0 24 24"><path d="M12 2a3 3 0 0 1 3 3 3 3 0 0 1-3 3 3 3 0 0 1-3-3 3 3 0 0 1 3-3m-1 20H8v-6H6V9h12v7h-2v6h-3v-4h-2z"/></svg>

<?xml version="1.0" encoding="UTF-8"?><!DOCTYPE svg PUBLIC "-//W3C//DTD SVG 1.1//EN" "http://www.w3.org/Graphics/SVG/1.1/DTD/svg11.dtd"><svg xmlns="http://www.w3.org/2000/svg" xmlns:xlink="http://www.w3.org/1999/xlink" version="1.1" id="mdi-human-child" width="24" height="24" viewBox="0 0 24 24"><path d="M12,2A3,3 0 0,1 15,5A3,3 0 0,1 12,8A3,3 0 0,1 9,5A3,3 0 0,1 12,2M11,22H8V16H6V9H18V16H16V22H13V18H11V22Z" /></svg>
